static/img/menus/ico-zoom.svg

<svg width="97" height="26" viewBox="0 0 97 26" fill="none" xmlns="http://www.w3.org/2000/svg">
<rect x="1" y="1" width="95" height="24" rx="11" fill="#404040"/>
<line x1="24.75" y1="25" x2="24.75" y2="1" stroke="#101010" stroke-width="0.5"/>
<line x1="69.75" y1="25" x2="69.75" y2="1" stroke="#101010" stroke-width="0.5"/>
<path d="M14.7364 17V9H16.2636V17H14.7364ZM11 13.6788V12.3212H20V13.6788H11Z" fill="white"/>
<path d="M87 12V14H80V12H87Z" fill="white"/>
<path d="M58.7158 15.5454V15.1364C58.7158 14.8535 58.7739 14.5947 58.8901 14.3598C59.0087 14.1225 59.1805 13.9331 59.4052 13.7917C59.6325 13.6477 59.9077 13.5757 60.231 13.5757C60.5592 13.5757 60.8345 13.6477 61.0567 13.7917C61.2789 13.9331 61.4469 14.1225 61.5605 14.3598C61.6741 14.5947 61.731 14.8535 61.731 15.1364V15.5454C61.731 15.8283 61.6729 16.0884 61.5567 16.3257C61.4431 16.5606 61.2739 16.75 61.0491 16.8939C60.8269 17.0353 60.5542 17.106 60.231 17.106C59.9027 17.106 59.6262 17.0353 59.4014 16.8939C59.1767 16.75 59.0062 16.5606 58.8901 16.3257C58.7739 16.0884 58.7158 15.8283 58.7158 15.5454ZM59.4885 15.1364V15.5454C59.4885 15.7803 59.5441 15.9912 59.6552 16.178C59.7663 16.3624 59.9582 16.4545 60.231 16.4545C60.4961 16.4545 60.683 16.3624 60.7916 16.178C60.9027 15.9912 60.9582 15.7803 60.9582 15.5454V15.1364C60.9582 14.9015 60.9052 14.6919 60.7991 14.5076C60.6931 14.3207 60.5037 14.2273 60.231 14.2273C59.9658 14.2273 59.7752 14.3207 59.659 14.5076C59.5454 14.6919 59.4885 14.9015 59.4885 15.1364ZM54.8522 11.106V10.697C54.8522 10.4141 54.9103 10.1553 55.0264 9.92044C55.1451 9.68307 55.3168 9.49368 55.5416 9.35226C55.7688 9.20832 56.0441 9.13635 56.3673 9.13635C56.6956 9.13635 56.9709 9.20832 57.1931 9.35226C57.4153 9.49368 57.5832 9.68307 57.6969 9.92044C57.8105 10.1553 57.8673 10.4141 57.8673 10.697V11.106C57.8673 11.3889 57.8092 11.649 57.6931 11.8864C57.5794 12.1212 57.4103 12.3106 57.1855 12.4545C56.9633 12.5959 56.6906 12.6667 56.3673 12.6667C56.039 12.6667 55.7625 12.5959 55.5378 12.4545C55.313 12.3106 55.1426 12.1212 55.0264 11.8864C54.9103 11.649 54.8522 11.3889 54.8522 11.106ZM55.6249 10.697V11.106C55.6249 11.3409 55.6805 11.5518 55.7916 11.7386C55.9027 11.923 56.0946 12.0151 56.3673 12.0151C56.6325 12.0151 56.8193 11.923 56.9279 11.7386C57.039 11.5518 57.0946 11.3409 57.0946 11.106V10.697C57.0946 10.4621 57.0416 10.2525 56.9355 10.0682C56.8294 9.8813 56.6401 9.78787 56.3673 9.78787C56.1022 9.78787 55.9115 9.8813 55.7954 10.0682C55.6817 10.2525 55.6249 10.4621 55.6249 10.697ZM55.1401 17L60.4734 9.24241H61.337L56.0037 17H55.1401Z" fill="white"/>
<path d="M50.6251 17.106C50.0544 17.106 49.5683 16.9507 49.1667 16.6401C48.7652 16.327 48.4584 15.8737 48.2463 15.2803C48.0342 14.6843 47.9281 13.9646 47.9281 13.1212C47.9281 12.2828 48.0342 11.5669 48.2463 10.9735C48.4609 10.3775 48.769 9.92297 49.1705 9.60984C49.5746 9.29418 50.0594 9.13635 50.6251 9.13635C51.1907 9.13635 51.6743 9.29418 52.0758 9.60984C52.4799 9.92297 52.7879 10.3775 53.0001 10.9735C53.2147 11.5669 53.322 12.2828 53.322 13.1212C53.322 13.9646 53.216 14.6843 53.0039 15.2803C52.7917 15.8737 52.4849 16.327 52.0834 16.6401C51.6819 16.9507 51.1958 17.106 50.6251 17.106ZM50.6251 16.2727C51.1907 16.2727 51.6301 16 51.9433 15.4545C52.2564 14.9091 52.4129 14.1313 52.4129 13.1212C52.4129 12.4495 52.341 11.8775 52.197 11.4053C52.0556 10.9331 51.8511 10.5732 51.5834 10.3257C51.3183 10.0783 50.9988 9.95453 50.6251 9.95453C50.0645 9.95453 49.6263 10.231 49.3107 10.7841C48.995 11.3346 48.8372 12.1136 48.8372 13.1212C48.8372 13.7929 48.9079 14.3636 49.0493 14.8333C49.1907 15.303 49.394 15.6603 49.6592 15.9053C49.9268 16.1502 50.2488 16.2727 50.6251 16.2727Z" fill="white"/>
<path d="M43.9583 17.106C43.3876 17.106 42.9015 16.9507 42.5 16.6401C42.0985 16.327 41.7917 15.8737 41.5795 15.2803C41.3674 14.6843 41.2614 13.9646 41.2614 13.1212C41.2614 12.2828 41.3674 11.5669 41.5795 10.9735C41.7942 10.3775 42.1023 9.92297 42.5038 9.60984C42.9078 9.29418 43.3927 9.13635 43.9583 9.13635C44.524 9.13635 45.0076 9.29418 45.4091 9.60984C45.8131 9.92297 46.1212 10.3775 46.3333 10.9735C46.548 11.5669 46.6553 12.2828 46.6553 13.1212C46.6553 13.9646 46.5492 14.6843 46.3371 15.2803C46.125 15.8737 45.8182 16.327 45.4167 16.6401C45.0151 16.9507 44.529 17.106 43.9583 17.106ZM43.9583 16.2727C44.524 16.2727 44.9634 16 45.2765 15.4545C45.5896 14.9091 45.7462 14.1313 45.7462 13.1212C45.7462 12.4495 45.6742 11.8775 45.5303 11.4053C45.3889 10.9331 45.1843 10.5732 44.9167 10.3257C44.6515 10.0783 44.3321 9.95453 43.9583 9.95453C43.3977 9.95453 42.9596 10.231 42.6439 10.7841C42.3283 11.3346 42.1704 12.1136 42.1704 13.1212C42.1704 13.7929 42.2412 14.3636 42.3826 14.8333C42.524 15.303 42.7273 15.6603 42.9924 15.9053C43.2601 16.1502 43.5821 16.2727 43.9583 16.2727Z" fill="white"/>
<path d="M39.197 9.24231V16.9999H38.2576V10.2272H38.2122L36.3182 11.4847V10.5302L38.2576 9.24231H39.197Z" fill="white"/>
</svg>

<svg xmlns="http://www.w3.org/2000/svg" width="97" height="26" fill="none" viewBox="0 0 97 26"><rect width="95" height="24" x="1" y="1" fill="#404040" rx="11"/><path stroke="#101010" stroke-width=".5" d="M24.75 25V1M69.75 25V1"/><path fill="#fff" d="M14.736 17V9h1.528v8zM11 13.679V12.32h9v1.358zM87 12v2h-7v-2zM58.716 15.545v-.409q0-.423.174-.776.178-.356.515-.568.341-.216.826-.216.492 0 .826.216.333.211.503.568.171.353.171.776v.41q0 .423-.174.78a1.4 1.4 0 0 1-.508.568q-.333.212-.818.212-.492 0-.83-.212a1.4 1.4 0 0 1-.51-.568 1.75 1.75 0 0 1-.175-.78m.773-.409v.41q0 .351.166.632.166.276.576.276.398 0 .56-.276.168-.28.167-.633v-.409q0-.352-.159-.628-.159-.28-.568-.28-.398 0-.572.28-.17.276-.17.628m-4.637-4.03v-.409q0-.425.174-.777.179-.355.516-.568.34-.216.825-.216.493 0 .826.216.333.213.504.568.17.352.17.777v.409q0 .425-.174.78a1.4 1.4 0 0 1-.508.569q-.333.211-.818.212-.492 0-.83-.213a1.4 1.4 0 0 1-.51-.568 1.75 1.75 0 0 1-.175-.78m.773-.409v.409q0 .352.167.633.166.276.575.276.398 0 .56-.276.168-.28.168-.633v-.409q0-.352-.16-.629-.159-.28-.568-.28-.398 0-.572.28-.17.276-.17.629M55.14 17l5.333-7.758h.864L56.004 17zM50.625 17.106q-.856 0-1.458-.466-.603-.47-.92-1.36-.32-.893-.319-2.159 0-1.257.318-2.148.323-.894.924-1.363.608-.474 1.455-.474.85 0 1.45.474.607.47.925 1.364.322.89.322 2.147 0 1.265-.318 2.16-.319.89-.92 1.36-.603.465-1.459.465m0-.833q.849 0 1.318-.819.47-.818.47-2.333 0-1.007-.216-1.716-.212-.708-.614-1.08a1.36 1.36 0 0 0-.958-.37q-.84 0-1.314.83-.474.825-.474 2.336 0 1.008.212 1.712.213.705.61 1.072.402.368.966.368M43.958 17.106q-.855 0-1.458-.466-.602-.47-.92-1.36-.32-.893-.319-2.159 0-1.257.319-2.148.321-.894.924-1.363.606-.474 1.454-.474.85 0 1.451.474.606.47.924 1.364.322.89.322 2.147 0 1.265-.318 2.16-.318.89-.92 1.36-.603.465-1.459.465m0-.833q.849 0 1.319-.819.47-.818.47-2.333 0-1.007-.217-1.716-.212-.708-.613-1.08a1.36 1.36 0 0 0-.959-.37q-.84 0-1.314.83-.474.825-.474 2.336 0 1.008.213 1.712.211.705.61 1.072.402.368.965.368M39.197 9.242V17h-.94v-6.773h-.045l-1.894 1.258v-.955l1.94-1.288z"/></svg>
